icons/1_Primary/Avast.svg

<svg width="1024" height="1024" fill="none" xmlns="http://www.w3.org/2000/svg"><g clip-path="url(#a)"><path d="M512 1024c282.77 0 512-229.23 512-512S794.77 0 512 0 0 229.23 0 512s229.23 512 512 512Z" fill="#F8C18C"/><path d="M475.63 319.801a64.593 64.593 0 0 1 77.948 3.758 64.596 64.596 0 0 1 16.942 21.932l149.4 315.84A254.813 254.813 0 0 0 768 513.861c1-141.4-112.81-256.86-254.22-257.86S257 368.811 256 510.221a254.521 254.521 0 0 0 47.42 150.08l6-1.35 97.49-21.48a2.47 2.47 0 0 1 1.78 4.53L328 689.851a255.783 255.783 0 0 0 194.156 77.948 255.778 255.778 0 0 0 187.384-93.058l-244.28-257.17a64.623 64.623 0 0 1-8.602-77.568 64.61 64.61 0 0 1 18.972-20.202Zm45.85 290.35-157.33 13.63a27.754 27.754 0 0 1-11.771-1.598 27.775 27.775 0 0 1-18.163-28.106 27.77 27.77 0 0 1 33.934-25.036l153.69 36.22a2.487 2.487 0 0 1 1.172 4.148c-.408.419-.95.682-1.532.742Zm-72.81-138.29 190.74 154.3a2.47 2.47 0 0 1-2.45 4.21l-229.41-87a41.807 41.807 0 0 1-24.6-25.001 41.801 41.801 0 0 1 65.71-46.549l.01.04Z" fill="#fff"/></g><defs><clipPath id="a"><path fill="#fff" d="M0 0h1024v1024H0z"/></clipPath></defs></svg>

<svg width="1024" height="1024" viewBox="0 0 1024 1024" fill="none" xmlns="http://www.w3.org/2000/svg">
<g clip-path="url(#clip0_2_1542)">
<path d="M512 1024C794.77 1024 1024 794.77 1024 512C1024 229.23 794.77 0 512 0C229.23 0 0 229.23 0 512C0 794.77 229.23 1024 512 1024Z" fill="#F8C18C"/>
<path d="M475.63 319.801C483.342 314.52 492.108 310.975 501.323 309.412C510.538 307.849 519.982 308.304 529.004 310.747C538.026 313.189 546.41 317.561 553.578 323.559C560.745 329.558 566.526 337.04 570.52 345.491L719.92 661.331C750.882 618.365 767.688 566.819 768 513.861C769 372.461 655.19 257.001 513.78 256.001C372.37 255.001 257 368.811 256 510.221C255.553 564.001 272.154 616.541 303.42 660.301L309.42 658.951L406.91 637.471C407.48 637.354 408.073 637.442 408.584 637.719C409.096 637.996 409.493 638.445 409.706 638.987C409.918 639.528 409.933 640.128 409.747 640.679C409.562 641.23 409.187 641.698 408.69 642.001L328 689.851C353.04 715.795 383.283 736.151 416.743 749.585C450.204 763.019 486.128 769.226 522.156 767.799C558.185 766.372 593.505 757.343 625.798 741.306C658.092 725.268 686.63 702.584 709.54 674.741L465.26 417.571C458.829 410.788 453.946 402.691 450.948 393.839C447.95 384.986 446.907 375.588 447.893 366.294C448.879 356.999 451.869 348.029 456.658 340.003C461.447 331.976 467.919 325.083 475.63 319.801ZM521.48 610.151L364.15 623.781C360.157 624.104 356.141 623.559 352.379 622.183C348.616 620.808 345.195 618.635 342.352 615.813C339.508 612.991 337.309 609.588 335.904 605.836C334.5 602.084 333.924 598.073 334.216 594.077C334.508 590.082 335.661 586.197 337.596 582.689C339.531 579.181 342.201 576.133 345.425 573.755C348.649 571.376 352.349 569.724 356.271 568.91C360.194 568.096 364.246 568.141 368.15 569.041L521.84 605.261C522.407 605.405 522.905 605.744 523.246 606.219C523.588 606.693 523.752 607.273 523.709 607.857C523.666 608.44 523.419 608.989 523.012 609.409C522.604 609.828 522.062 610.091 521.48 610.151ZM448.67 471.861L639.41 626.161C639.859 626.534 640.16 627.055 640.262 627.629C640.363 628.204 640.258 628.797 639.964 629.301C639.671 629.806 639.208 630.19 638.658 630.386C638.108 630.581 637.506 630.576 636.96 630.371L407.55 543.371C401.883 541.234 396.749 537.892 392.501 533.575C388.254 529.259 384.995 524.071 382.95 518.37C380.906 512.67 380.124 506.593 380.66 500.561C381.196 494.529 383.036 488.685 386.053 483.434C389.07 478.183 393.192 473.65 398.133 470.15C403.075 466.649 408.718 464.264 414.673 463.159C420.627 462.055 426.75 462.257 432.619 463.753C438.487 465.248 443.96 468.001 448.66 471.821L448.67 471.861Z" fill="white"/>
</g>
<defs>
<clipPath id="clip0_2_1542">
<rect width="1024" height="1024" fill="white"/>
</clipPath>
</defs>
</svg>
